img/menu_arrow.svg

<?xml version="1.0" encoding="UTF-8"?>
<svg width="11px" height="7px" viewBox="0 0 11 7" version="1.1" xmlns="http://www.w3.org/2000/svg" xmlns:xlink="http://www.w3.org/1999/xlink">
    <title>chevron-down-solid</title>
    <g id="Page-1" stroke="none" stroke-width="1" fill="none" fill-rule="evenodd">
        <g id="chevron-down-solid" transform="translate(0.925000, 0.925000)" fill="#233E70" fill-rule="nonzero">
            <path d="M4.49570456,5.50429544 C4.77462903,5.7832199 5.22760237,5.7832199 5.50652683,5.50429544 L9.79080665,1.22001562 C10.0697311,0.941091153 10.0697311,0.488117818 9.79080665,0.20919335 C9.51188218,-0.0697311168 9.05890885,-0.0697311168 8.77998438,0.20919335 L5,3.98917773 L1.22001562,0.211424746 C0.941091153,-0.0674997211 0.488117818,-0.0674997211 0.20919335,0.211424746 C-0.0697311168,0.490349213 -0.0697311168,0.943322548 0.20919335,1.22224702 L4.49347317,5.50652683 L4.49570456,5.50429544 Z" id="Path"></path>
        </g>
    </g>
</svg>

<svg height="7" viewBox="0 0 11 7" width="11" xmlns="http://www.w3.org/2000/svg"><path d="m4.49570456 5.50429544c.27892447.27892446.73189781.27892446 1.01082227 0l4.28427982-4.28427982c.27892445-.27892447.27892445-.7318978 0-1.01082227-.27892447-.27892447-.7318978-.27892447-1.01082227 0l-3.77998438 3.77998438-3.77998438-3.77775298c-.27892447-.27892447-.7318978-.27892447-1.01082227 0-.27892447.27892446-.27892447.7318978 0 1.01082227l4.28427982 4.28427981z" fill="#233e70" transform="translate(.925 .925)"/></svg>
